X: 1128
T: Baltiorum
R:slip jig
B:O'Neill's 1128
Z:Transcribed by Michael Hogan
M:9/8
L:1/8
K:G
g2g ege dBG | g2g ege f2d | g2g ege dBG | A2g ege f2d :|
|:BAG cBA dBG | BAG cBA d2G | BAG cBA dBG | A2g ege f2d :|


